X:1
T:The Great White Throne
T:The Great White Throne
T:Eli G. Christy
T:Eli G. Christy, 1874
T:Public Domain Courtesy of the Cyber Hymnal™
T:Public Domain Courtesy of the Cyber Hymnal™
C:Eli G. Christy
Z:Public Domain
Z:Courtesy of the Cyber Hymnal™
%%score ( 1 2 ) ( 3 4 )
L:1/8
Q:1/4=110
M:4/4
K:Eb
V:1 treble 
V:2 treble 
V:3 bass 
V:4 bass 
V:1
 E2 | [EG]2 [EG]2 [EF]2 E2 | [EB]4 [Ec]2 [EB]2 | [EG]2 [B,E]2 [EG]2 [B,F]2 | [B,E]6 E2 | %5
w: 1.~I|love the bless- èd|Je- sus, My|Sav- ior and my|friend; Help|
w: 2.~I|love the bless- èd|Je- sus, For|me He bled and|died; And|
w: 3.~O|let me live for|Je- sus, And|bear His cross be-|low; And|
w: 4.~Then|let me die in|Je- sus; His|pre- sence I shall|have While|
 [EG]2 [EG]2 [EF]2 E2 | [EB]4 [Ec]2 [EB]2 | [EG]2 [B,E]2 [EG]2 [B,F]2 | [B,E]6 [EB]2 | %9
w: me to sing His|prais- es, Till|earth- ly life shall|end; And|
w: in His pre- cious|mer- it I’ll|ev- er- more con-|fide; I’ll|
w: if the Sav- ior|calls me To|suf- fer pain and|woe, I|
w: cross- ing o- ver|Jor- dan, To|calm the trou- bled|wave; And|
 [Ge]2 [Ge]2 [Ac]2 [GB]2 | [Ec]2 [EB]2 [EG]2 [EB]2 | [Ge]2 [Be]2 [Ac]2 [AB]2 | [Ge]6 [GB]2 | %13
w: then in gar- ments|pure and white, With|crowns and harps of|gold, We’ll|
w: wor- ship Him who|rose a- gain, Tri-|umph- ant o’er the|grave; And|
w: want to be like|Je- sus still, And|al- ways watch and|pray. That|
w: when, tri- umph- ant|o- ver death, I|gain the bliss- ful|shore, I’ll|
 [Ge]2 [Ge]2 [GB]2 [EG][EB] | [Ec]2 [Ee]2 [EB]2 E2 | [EG]3 E [DF]2 [DG]2 | [B,E]6 || %17
w: meet this friend on the|plains of light, His|glo- ry to be-|hold.|
w: when we meet as a|ran- somed throng, We’ll|sing His pow’r to|save.|
w: I may rest in the|hap- py home, In|realms of end- less|day.|
w: reign with Him in the|world a- bove, When|time shall be no|more.|
"^Refrain" E[EF] | [EG]<[GB] [GB]>[EG] [DF]2 E2 | B6 [GB][GB] | [Ac]<[ce] [ce]>[Ac] [GB]2 [EG]2 | %21
w: ||||
w: ||||
w: When we|ga- ther round the great white|throne, When we|ga- ther round the great white|
w: ||||
 !fermata!F6 !fermata!E>F | G2 B2 [Ge]3 [GB] | [Ac]2 [Ae]2 !fermata![GB]2 E[EF] | %24
w: |||
w: |||
w: throne, We will|sing His praise thro’|end- less days, When we|
w: |||
 [EG]<[GB] [GB]>[EG] [DF]2 [B,G]2 | [B,E]6 |] %26
w: ||
w: ||
w: ga- ther round the great white|throne.|
w: ||
V:2
 E2 | x6 E2 | x8 | x8 | x6 E2 | x6 E2 | x8 | x8 | x8 | x8 | x8 | x8 | x8 | x8 | x6 E2 | x3 E x4 | %16
 x6 || E x | x6 E2 | (E2 D2 E2) x2 | x8 | (D2 E2 B,2) E>F | G2 B2 x4 | x6 E x | x8 | x6 |] %26
V:3
 [E,G,]2 | [E,B,]2 [E,B,]2 [E,A,]2 [E,G,]2 | [E,G,]4 [E,A,]2 [E,G,]2 | %3
 [B,,B,]2 [B,,G,]2 [B,,B,]2 [B,,A,]2 | [E,G,]6 [E,G,]2 | [E,B,]2 [E,B,]2 [E,A,]2 [E,G,]2 | %6
 [E,G,]4 [E,A,]2 [E,G,]2 | [B,,B,]2 [B,,G,]2 [B,,B,]2 [B,,A,]2 | [E,G,]6 [E,G,]2 | %9
 [E,B,]2 [E,B,]2 [E,E]2 [E,E]2 | A,2 [G,B,]2 [E,B,]2 [E,G,]2 | [E,B,]2 [G,E]2 [A,E]2 B,2 | %12
 [E,B,]6 [E,E]2 | [E,B,]2 [E,B,]2 [E,E]2 [E,B,][G,B,] | A,2 [A,C]2 [G,B,]2 [E,G,]2 | %15
 [B,,B,]3 [B,,G,] [B,,A,]2 [B,,B,]2 | [E,G,]6 || [E,G,][E,A,] | %18
 [E,B,]<[E,E] [E,E]>[E,B,] [E,A,]2 [E,G,]2 | ([E,G,]2 [F,A,]2 [G,B,]2) [E,E][E,E] | %20
 [A,E]<[A,E] [A,E]>[A,E] [E,E]2 [E,B,]2 | ([B,,B,]2 [C,=A,]2 [D,_A,]2) E,>F, | %22
 G,2 B,2 [E,B,]3 [E,E] | [A,E]2 [C,E]2 !fermata![E,E]2 [E,G,][E,A,] | %24
 [E,B,]<[E,E] [E,E]>[E,B,] [B,,A,]2 [B,,B,]2 | [E,G,]6 |] %26
V:4
 x2 | x8 | x8 | x8 | x8 | x8 | x8 | x8 | x8 | x8 | A,2 x6 | x6 B,2 | x8 | x8 | A,2 x6 | x8 | x6 || %17
 x2 | x8 | x8 | x8 | x6 E,>F, | G,2 B,2 x4 | x8 | x8 | x6 |] %26

